MA4T1/111/aimg/borrador.svg

<svg clip-rule="evenodd" fill-rule="evenodd" stroke-linejoin="round" stroke-miterlimit="2" viewBox="0 0 120 73" xmlns="http://www.w3.org/2000/svg"><g fill-rule="nonzero"><path d="m0-7.68c-1.017.5-1.935.956-2.858 1.402-.375.182-.498.475-.464.872.123 1.417.236 2.836.363 4.253.004.05.11.091.244.194.593-.298 1.232-.604 1.855-.935.51-.271.67-.744.7-1.294.038-.672.13-1.342.154-2.013.027-.786.006-1.572.006-2.479m-14.581-.554c1.054.11 1.871.185 2.685.283 2.766.332 5.585.261 8.288 1.083.146.045.339.098.456.04 1.034-.516 2.07-1.031 3.073-1.602.391-.223.338-.679-.099-.822-.559-.184-1.158-.327-1.743-.338-2.514-.044-5.031.02-7.543-.062-1.79-.057-3.344.55-5.117 1.418m-5.289 2.36c.291.168.385.259.491.276 1.724.28 3.38.979 5.178.815.184-.016.55.175.552.276.008.395-.361.368-.617.347-.87-.074-1.745-.141-2.604-.293-.783-.138-1.543-.399-2.32-.577-.534-.122-.734.017-.623.524.253 1.162.574 2.31.893 3.457.126.453.47.681.922.847 2.365.867 4.778 1.549 7.252 2.015 1.378.26 1.475.174 1.465-1.266-.007-1.037-.036-2.074-.027-3.111.002-.163.158-.324.242-.487.138.163.332.305.401.492.079.216.057.472.06.711.012.957.01 1.915.025 2.872.014.916.181 1.061.952.672 1.174-.591 2.308-1.264 3.467-1.887.335-.179.422-.443.396-.79-.104-1.35-.205-2.701-.299-4.053-.03-.423-.235-.593-.626-.418-.874.39-1.733.812-2.604 1.209-.219.1-.461.152-.692.225.906-1.068 2.175-1.498 3.59-2.252-.961-.199-1.645-.388-2.341-.476-1.898-.242-3.801-.458-5.704-.65-1.111-.111-2.227-.171-3.342-.217-.265-.011-.553.083-.8.196-1.051.476-2.09.978-3.287 1.543m14.055-4.443c1.478 0 2.958-.051 4.433.012 2.27.097 2.721.869 2.289 3.101-.075.385-.118.779-.144 1.171-.072 1.074-.125 2.15-.19 3.224-.048.792-.461 1.316-1.158 1.685-2.117 1.115-4.212 2.27-6.333 3.376-.412.214-.901.361-1.362.382-1.276.06-2.547.002-3.808-.292-2.063-.48-4.089-1.067-6.08-1.792-.693-.251-1.14-.64-1.419-1.326-.643-1.577-.896-3.215-.952-4.902-.011-.345.108-.504.375-.655 2.683-1.516 5.461-2.824 8.383-3.808.445-.149.939-.2 1.411-.208 1.518-.025 3.037-.01 4.555-.01z" fill="#231f20" transform="matrix(5.55556 0 0 5.55556 114.10524376 57.57644688)"/><path d="m0-6.209c1.197-.564 2.236-1.066 3.287-1.543.247-.112.535-.207.8-.195 1.115.046 2.231.105 3.342.217 1.904.191 3.806.408 5.704.649.697.089 1.38.277 2.342.476-1.415.754-2.685 1.184-3.591 2.252.231-.073.473-.125.692-.225.871-.397 1.73-.819 2.604-1.209.391-.175.596-.005.626.419.094 1.351.195 2.702.299 4.053.026.346-.061.61-.396.79-1.159.623-2.292 1.295-3.467 1.886-.771.389-.938.244-.952-.672-.015-.957-.013-1.915-.025-2.872-.003-.239.019-.495-.06-.711-.069-.187-.263-.329-.401-.492-.084.163-.24.324-.241.488-.01 1.037.02 2.074.026 3.11.01 1.44-.087 1.526-1.464 1.266-2.475-.465-4.888-1.148-7.252-2.015-.453-.166-.797-.394-.923-.847-.319-1.146-.64-2.295-.893-3.457-.111-.507.089-.645.623-.523.777.177 1.537.438 2.32.576.859.152 1.734.22 2.604.293.256.021.625.049.617-.347-.002-.1-.368-.292-.552-.275-1.797.163-3.454-.535-5.178-.816-.106-.016-.199-.108-.491-.276" fill="#f7a3a5" transform="matrix(5.55556 0 0 5.55556 3.71626656 59.43755948)"/><path d="m0 .012c1.773-.868 3.327-1.476 5.117-1.418 2.512.082 5.029.018 7.543.062.585.01 1.184.154 1.743.337.437.144.49.6.099.823-1.003.571-2.039 1.086-3.073 1.601-.117.059-.31.006-.456-.039-2.702-.822-5.522-.752-8.288-1.084-.814-.097-1.631-.173-2.685-.282" fill="#18c3f4" transform="matrix(5.55556 0 0 5.55556 33.0996234 11.76529912)"/><path d="m0-6.721c0 .907.021 1.693-.006 2.479-.024.671-.116 1.341-.154 2.013-.03.55-.19 1.023-.7 1.294-.623.331-1.262.637-1.855.935-.134-.103-.24-.144-.244-.194-.127-1.417-.24-2.836-.363-4.253-.034-.397.089-.69.464-.872.923-.446 1.841-.902 2.858-1.402" fill="#1375bc" transform="matrix(5.55556 0 0 5.55556 114.10524376 52.24866484)"/><path d="m0 .365c-.594-.425-1.298-.668-2.023-.779-.237-.037-.476-.06-.714-.071-.739-.034-4.74.052-2.469.973.712.288 1.61.365 2.37.385.442.011 2.715-.595 2.836-.508" fill="#fff" transform="matrix(5.55556 0 0 5.55556 74.78299008 24.18197572)"/></g></svg>

<?xml version="1.0" encoding="UTF-8" standalone="no"?>
<!DOCTYPE svg PUBLIC "-//W3C//DTD SVG 1.1//EN" "http://www.w3.org/Graphics/SVG/1.1/DTD/svg11.dtd">
<svg width="100%" height="100%" viewBox="0 0 120 73" version="1.1" xmlns="http://www.w3.org/2000/svg" xmlns:xlink="http://www.w3.org/1999/xlink" xml:space="preserve" xmlns:serif="http://www.serif.com/" style="fill-rule:evenodd;clip-rule:evenodd;stroke-linejoin:round;stroke-miterlimit:2;">
    <g transform="matrix(1,0,0,1,-8148.81,-12012.4)">
        <g transform="matrix(5.55556,0,0,5.55556,7263.77,9566.93)">
            <g transform="matrix(1,0,0,1,179.846,450.548)">
                <path d="M0,-7.68C-1.017,-7.18 -1.935,-6.724 -2.858,-6.278C-3.233,-6.096 -3.356,-5.803 -3.322,-5.406C-3.199,-3.989 -3.086,-2.57 -2.959,-1.153C-2.955,-1.103 -2.849,-1.062 -2.715,-0.959C-2.122,-1.257 -1.483,-1.563 -0.86,-1.894C-0.35,-2.165 -0.19,-2.638 -0.16,-3.188C-0.122,-3.86 -0.03,-4.53 -0.006,-5.201C0.021,-5.987 0,-6.773 0,-7.68M-14.581,-8.234C-13.527,-8.124 -12.71,-8.049 -11.896,-7.951C-9.13,-7.619 -6.311,-7.69 -3.608,-6.868C-3.462,-6.823 -3.269,-6.77 -3.152,-6.828C-2.118,-7.344 -1.082,-7.859 -0.079,-8.43C0.312,-8.653 0.259,-9.109 -0.178,-9.252C-0.737,-9.436 -1.336,-9.579 -1.921,-9.59C-4.435,-9.634 -6.952,-9.57 -9.464,-9.652C-11.254,-9.709 -12.808,-9.102 -14.581,-8.234M-19.87,-5.874C-19.579,-5.706 -19.485,-5.615 -19.379,-5.598C-17.655,-5.318 -15.999,-4.619 -14.201,-4.783C-14.017,-4.799 -13.651,-4.608 -13.649,-4.507C-13.641,-4.112 -14.01,-4.139 -14.266,-4.16C-15.136,-4.234 -16.011,-4.301 -16.87,-4.453C-17.653,-4.591 -18.413,-4.852 -19.19,-5.03C-19.724,-5.152 -19.924,-5.013 -19.813,-4.506C-19.56,-3.344 -19.239,-2.196 -18.92,-1.049C-18.794,-0.596 -18.45,-0.368 -17.998,-0.202C-15.633,0.665 -13.22,1.347 -10.746,1.813C-9.368,2.073 -9.271,1.987 -9.281,0.547C-9.288,-0.49 -9.317,-1.527 -9.308,-2.564C-9.306,-2.727 -9.15,-2.888 -9.066,-3.051C-8.928,-2.888 -8.734,-2.746 -8.665,-2.559C-8.586,-2.343 -8.608,-2.087 -8.605,-1.848C-8.593,-0.891 -8.595,0.067 -8.58,1.024C-8.566,1.94 -8.399,2.085 -7.628,1.696C-6.454,1.105 -5.32,0.432 -4.161,-0.191C-3.826,-0.37 -3.739,-0.634 -3.765,-0.981C-3.869,-2.331 -3.97,-3.682 -4.064,-5.034C-4.094,-5.457 -4.299,-5.627 -4.69,-5.452C-5.564,-5.062 -6.423,-4.64 -7.294,-4.243C-7.513,-4.143 -7.755,-4.091 -7.986,-4.018C-7.08,-5.086 -5.811,-5.516 -4.396,-6.27C-5.357,-6.469 -6.041,-6.658 -6.737,-6.746C-8.635,-6.988 -10.538,-7.204 -12.441,-7.396C-13.552,-7.507 -14.668,-7.567 -15.783,-7.613C-16.048,-7.624 -16.336,-7.53 -16.583,-7.417C-17.634,-6.941 -18.673,-6.439 -19.87,-5.874M-5.815,-10.317C-4.337,-10.317 -2.857,-10.368 -1.382,-10.305C0.888,-10.208 1.339,-9.436 0.907,-7.204C0.832,-6.819 0.789,-6.425 0.763,-6.033C0.691,-4.959 0.638,-3.883 0.573,-2.809C0.525,-2.017 0.112,-1.493 -0.585,-1.124C-2.702,-0.009 -4.797,1.146 -6.918,2.252C-7.33,2.466 -7.819,2.613 -8.28,2.634C-9.556,2.694 -10.827,2.636 -12.088,2.342C-14.151,1.862 -16.177,1.275 -18.168,0.55C-18.861,0.299 -19.308,-0.09 -19.587,-0.776C-20.23,-2.353 -20.483,-3.991 -20.539,-5.678C-20.55,-6.023 -20.431,-6.182 -20.164,-6.333C-17.481,-7.849 -14.703,-9.157 -11.781,-10.141C-11.336,-10.29 -10.842,-10.341 -10.37,-10.349C-8.852,-10.374 -7.333,-10.359 -5.815,-10.359L-5.815,-10.317Z" style="fill:rgb(35,31,32);fill-rule:nonzero;"/>
            </g>
        </g>
        <g transform="matrix(5.55556,0,0,5.55556,7263.77,9566.93)">
            <g transform="matrix(1,0,0,1,159.976,450.883)">
                <path d="M0,-6.209C1.197,-6.773 2.236,-7.275 3.287,-7.752C3.534,-7.864 3.822,-7.959 4.087,-7.947C5.202,-7.901 6.318,-7.842 7.429,-7.73C9.333,-7.539 11.235,-7.322 13.133,-7.081C13.83,-6.992 14.513,-6.804 15.475,-6.605C14.06,-5.851 12.79,-5.421 11.884,-4.353C12.115,-4.426 12.357,-4.478 12.576,-4.578C13.447,-4.975 14.306,-5.397 15.18,-5.787C15.571,-5.962 15.776,-5.792 15.806,-5.368C15.9,-4.017 16.001,-2.666 16.105,-1.315C16.131,-0.969 16.044,-0.705 15.709,-0.525C14.55,0.098 13.417,0.77 12.242,1.361C11.471,1.75 11.304,1.605 11.29,0.689C11.275,-0.268 11.277,-1.226 11.265,-2.183C11.262,-2.422 11.284,-2.678 11.205,-2.894C11.136,-3.081 10.942,-3.223 10.804,-3.386C10.72,-3.223 10.564,-3.062 10.563,-2.898C10.553,-1.861 10.583,-0.824 10.589,0.212C10.599,1.652 10.502,1.738 9.125,1.478C6.65,1.013 4.237,0.33 1.873,-0.537C1.42,-0.703 1.076,-0.931 0.95,-1.384C0.631,-2.53 0.31,-3.679 0.057,-4.841C-0.054,-5.348 0.146,-5.486 0.68,-5.364C1.457,-5.187 2.217,-4.926 3,-4.788C3.859,-4.636 4.734,-4.568 5.604,-4.495C5.86,-4.474 6.229,-4.446 6.221,-4.842C6.219,-4.942 5.853,-5.134 5.669,-5.117C3.872,-4.954 2.215,-5.652 0.491,-5.933C0.385,-5.949 0.292,-6.041 0,-6.209" style="fill:rgb(247,163,165);fill-rule:nonzero;"/>
            </g>
        </g>
        <g transform="matrix(5.55556,0,0,5.55556,7263.77,9566.93)">
            <g transform="matrix(1,0,0,1,165.265,442.302)">
                <path d="M0,0.012C1.773,-0.856 3.327,-1.464 5.117,-1.406C7.629,-1.324 10.146,-1.388 12.66,-1.344C13.245,-1.334 13.844,-1.19 14.403,-1.007C14.84,-0.863 14.893,-0.407 14.502,-0.184C13.499,0.387 12.463,0.902 11.429,1.417C11.312,1.476 11.119,1.423 10.973,1.378C8.271,0.556 5.451,0.626 2.685,0.294C1.871,0.197 1.054,0.121 0,0.012" style="fill:rgb(24,195,244);fill-rule:nonzero;"/>
            </g>
        </g>
        <g transform="matrix(5.55556,0,0,5.55556,7263.77,9566.93)">
            <g transform="matrix(1,0,0,1,179.846,449.589)">
                <path d="M0,-6.721C0,-5.814 0.021,-5.028 -0.006,-4.242C-0.03,-3.571 -0.122,-2.901 -0.16,-2.229C-0.19,-1.679 -0.35,-1.206 -0.86,-0.935C-1.483,-0.604 -2.122,-0.298 -2.715,0C-2.849,-0.103 -2.955,-0.144 -2.959,-0.194C-3.086,-1.611 -3.199,-3.03 -3.322,-4.447C-3.356,-4.844 -3.233,-5.137 -2.858,-5.319C-1.935,-5.765 -1.017,-6.221 0,-6.721" style="fill:rgb(19,117,188);fill-rule:nonzero;"/>
            </g>
        </g>
        <g transform="matrix(5.55556,0,0,5.55556,7263.77,9566.93)">
            <g transform="matrix(1,0,0,1,172.768,444.537)">
                <path d="M0,0.365C-0.594,-0.06 -1.298,-0.303 -2.023,-0.414C-2.26,-0.451 -2.499,-0.474 -2.737,-0.485C-3.476,-0.519 -7.477,-0.433 -5.206,0.488C-4.494,0.776 -3.596,0.853 -2.836,0.873C-2.394,0.884 -0.121,0.278 0,0.365" style="fill:white;fill-rule:nonzero;"/>
            </g>
        </g>
    </g>
</svg>
